picto/luggage-push-carts-prohibited-framed.svg

<svg class="color-immutable" width="30" height="30" viewBox="0 0 30 30" fill="none" xmlns="http://www.w3.org/2000/svg"><path d="M29.9999 0H0V29.9999H29.9999V0Z" fill="#2D327D"/><path d="M25.4999 2.99999C26.3249 2.99999 26.9999 3.67499 26.9999 4.49999V25.4999C26.9999 26.3249 26.3249 26.9999 25.4999 26.9999H4.49999C3.67499 26.9999 2.99999 26.3249 2.99999 25.4999V4.49999C2.99999 3.67499 3.67499 2.99999 4.49999 2.99999H25.4999ZM25.4999 2.62499H4.49999C3.46612 2.62499 2.62499 3.46612 2.62499 4.49999V25.4999C2.62499 26.5338 3.46612 27.3749 4.49999 27.3749H25.4999C26.5338 27.3749 27.3749 26.5338 27.3749 25.4999V4.49999C27.3749 3.46612 26.5338 2.62499 25.4999 2.62499Z" fill="white"/><path d="M9.12383 21.5516C8.45123 21.5516 7.90501 22.0976 7.90501 22.7698C7.90501 23.443 8.45123 23.9889 9.12383 23.9889C9.79643 23.9889 10.3418 23.4429 10.3418 22.7698C10.3418 22.0976 9.79643 21.5516 9.12383 21.5516Z" fill="white"/><path d="M24.0504 22.9732L21.9377 20.8605V20.2509H21.328L20.7355 19.6584C21.4212 19.5198 21.9377 18.9132 21.9377 18.1887V13.4997C21.9377 12.6714 21.266 12.0002 20.4373 12.0002H17.6252V11.2489C17.6252 10.8357 17.2888 10.5007 16.8746 10.5007H14.2502C13.8358 10.5007 13.4996 10.8357 13.4996 11.2489V12.0002H13.0772L6.70834 5.63129L5.64769 6.69186L10.956 12.0001H10.6874C9.85976 12.0001 9.18716 12.6714 9.18716 13.4996V18.1887C9.18716 19.0149 9.85976 19.6882 10.6874 19.6882H18.644L19.2065 20.2508H8.62421V10.8747C8.62421 10.6686 8.45703 10.5006 8.24981 10.5006H6.37496C6.16789 10.5006 5.99981 10.6685 5.99981 10.8747C5.99981 11.0818 6.16789 11.2488 6.37496 11.2488H7.87541V21.0001H19.9559L20.531 21.5751C19.9712 21.6855 19.5492 22.1786 19.5492 22.7699C19.5492 23.4431 20.0945 23.989 20.768 23.989C21.3589 23.989 21.8522 23.5665 21.9626 23.0068L22.9899 24.0341L24.0504 22.9732ZM14.2502 11.2488H16.8746V12.0001H14.2502V11.2488Z" fill="white"/><path d="M6.70834 5.63129L5.64769 6.69186L22.9899 24.0341L24.0504 22.9732L6.70834 5.63129Z" fill="#EB0000"/></svg>

<svg class="color-immutable" width="30" height="30" viewBox="0 0 30 30" fill="none" xmlns="http://www.w3.org/2000/svg"><path d="M30 0H0v30h30V0Z" fill="#2D327D"/><path d="M25.5 3c.825 0 1.5.675 1.5 1.5v21c0 .825-.675 1.5-1.5 1.5h-21c-.825 0-1.5-.675-1.5-1.5v-21C3 3.675 3.675 3 4.5 3h21Zm0-.375h-21A1.877 1.877 0 0 0 2.625 4.5v21c0 1.034.841 1.875 1.875 1.875h21a1.877 1.877 0 0 0 1.875-1.875v-21A1.877 1.877 0 0 0 25.5 2.625Z" fill="#fff"/><path d="M9.124 21.552a1.22 1.22 0 1 0 0 2.438 1.22 1.22 0 0 0 0-2.438ZM24.05 22.973l-2.112-2.113v-.61h-.61l-.593-.592a1.502 1.502 0 0 0 1.203-1.47V13.5a1.5 1.5 0 0 0-1.5-1.5h-2.813v-.751a.75.75 0 0 0-.75-.748H14.25a.75.75 0 0 0-.75.748V12h-.423L6.708 5.631l-1.06 1.06 5.308 5.31h-.269a1.5 1.5 0 0 0-1.5 1.499v4.689c0 .826.673 1.5 1.5 1.5h7.957l.563.562H8.623v-9.376a.374.374 0 0 0-.374-.374H6.375a.375.375 0 1 0 0 .748h1.5V21h12.08l.576.575a1.219 1.219 0 1 0 1.432 1.432l1.027 1.027 1.06-1.06Zm-9.8-11.724h2.625V12H14.25v-.751Z" fill="#fff"/><path d="m6.708 5.631-1.06 1.06L22.99 24.035l1.06-1.06L6.708 5.63Z" fill="#EB0000"/></svg>
